X: 07013
T: BONSELL'S REEL
C: Bob McQuillen 22 Ma4 89
B: Bob's Note Book 7 #13
%R: reel
Z: 2020 John Chambers <jc:trillian.mit.edu>
M: C
L: 1/8
K: G
de \
| g2ge dBeg | dBAB GEGB | AGEG DEGB | dBGB A2de |
| g2ge dBeg | dBAB GEGB | ABGE DEGB | dBAB G2  :|
|: GA \
| BedB AGBA | GBAG EDGE | DEGA Bdgd | egdB A2de |
| gedB AGBA | GBAG EDGE | DEGA Bdge | dBAB G2  :|
%%begintext align
%% My good friend Ed Bonsell lives in
%% Fort Washington, PA., and he goes to the Philly Folk Festival every year.
%% We play up a storm into the wee hours with Johnny Brennan and
%% various other n'er-do-wells, and Eddy plays the spots off the music
%% with his hammer dulcimer. We all have a wonderful time together!
%%endtext
